img/doublecolon.svg

<svg width="10" height="30" viewBox="0 0 10 30" fill="none" xmlns="http://www.w3.org/2000/svg">
<path d="M5.01953 0.816406C6.36719 0.816406 7.50977 1.29492 8.44727 2.25195C9.4043 3.18945 9.88281 4.33203 9.88281 5.67969C9.88281 7.02734 9.4043 8.17969 8.44727 9.13672C7.50977 10.0742 6.36719 10.543 5.01953 10.543C3.67188 10.543 2.51953 10.0742 1.5625 9.13672C0.625 8.17969 0.15625 7.02734 0.15625 5.67969C0.15625 4.33203 0.625 3.18945 1.5625 2.25195C2.51953 1.29492 3.67188 0.816406 5.01953 0.816406ZM4.99023 19.9766C6.35742 19.9766 7.50977 20.4551 8.44727 21.4121C9.4043 22.3691 9.88281 23.5215 9.88281 24.8691C9.88281 26.2168 9.4043 27.3691 8.44727 28.3262C7.49023 29.2637 6.33789 29.7324 4.99023 29.7324C3.64258 29.7324 2.49023 29.2637 1.5332 28.3262C0.595703 27.3691 0.126953 26.2168 0.126953 24.8691C0.126953 23.5215 0.595703 22.3691 1.5332 21.4121C2.49023 20.4551 3.64258 19.9766 4.99023 19.9766Z" fill="#EBC317"/>
</svg>

<svg width="10" height="30" fill="none" xmlns="http://www.w3.org/2000/svg"><path d="M5.02.816c1.347 0 2.49.479 3.427 1.436.957.937 1.436 2.08 1.436 3.428 0 1.347-.479 2.5-1.436 3.457-.937.937-2.08 1.406-3.427 1.406-1.348 0-2.5-.469-3.457-1.406C.625 8.18.155 7.027.155 5.68c0-1.348.469-2.49 1.407-3.428C2.52 1.295 3.671.816 5.02.816zm-.03 19.16c1.367 0 2.52.48 3.457 1.436.957.957 1.436 2.11 1.436 3.457 0 1.348-.479 2.5-1.436 3.457-.957.938-2.11 1.406-3.457 1.406s-2.5-.468-3.457-1.406C.596 27.37.127 26.216.127 24.87c0-1.348.469-2.5 1.406-3.457.957-.957 2.11-1.435 3.457-1.435z" fill="#EBC317"/></svg>
